germany/municipalities/07140140.svg

<?xml version="1.0" encoding="UTF-8" standalone="no"?>
<!-- Created with Inkscape (http://www.inkscape.org/) -->

<svg
   xmlns:dc="http://purl.org/dc/elements/1.1/"
   xmlns:cc="http://creativecommons.org/ns#"
   xmlns:rdf="http://www.w3.org/1999/02/22-rdf-syntax-ns#"
   xmlns:svg="http://www.w3.org/2000/svg"
   xmlns="http://www.w3.org/2000/svg"
   xmlns:sodipodi="http://sodipodi.sourceforge.net/DTD/sodipodi-0.dtd"
   xmlns:inkscape="http://www.inkscape.org/namespaces/inkscape"
   width="134.14346mm"
   height="158.02904mm"
   viewBox="0 0 134.14346 158.02904"
   version="1.1"
   id="svg865"
   inkscape:version="0.92.5 (2060ec1f9f, 2020-04-08)"
   sodipodi:docname="DEU Schwall COA.svg">
  <defs
     id="defs859">
    <inkscape:path-effect
       effect="spiro"
       id="path-effect2841"
       is_visible="true" />
    <inkscape:path-effect
       effect="spiro"
       id="path-effect2799"
       is_visible="true" />
    <inkscape:path-effect
       effect="spiro"
       id="path-effect2641"
       is_visible="true" />
    <inkscape:path-effect
       effect="spiro"
       id="path-effect3644"
       is_visible="true" />
    <inkscape:path-effect
       effect="spiro"
       id="path-effect3636"
       is_visible="true" />
    <inkscape:path-effect
       effect="spiro"
       id="path-effect3544"
       is_visible="true" />
    <inkscape:path-effect
       effect="spiro"
       id="path-effect3466"
       is_visible="true" />
    <inkscape:path-effect
       effect="spiro"
       id="path-effect3544-2"
       is_visible="true" />
    <inkscape:path-effect
       effect="spiro"
       id="path-effect3644-8"
       is_visible="true" />
    <inkscape:path-effect
       effect="spiro"
       id="path-effect3644-3"
       is_visible="true" />
    <inkscape:path-effect
       effect="spiro"
       id="path-effect3636-0"
       is_visible="true" />
    <inkscape:path-effect
       effect="spiro"
       id="path-effect1727-0-1"
       is_visible="true" />
    <inkscape:path-effect
       effect="spiro"
       id="path-effect1731-8-3"
       is_visible="true" />
    <inkscape:path-effect
       effect="spiro"
       id="path-effect1727-3"
       is_visible="true" />
    <inkscape:path-effect
       effect="spiro"
       id="path-effect1731-7"
       is_visible="true" />
    <inkscape:path-effect
       effect="spiro"
       id="path-effect841-8"
       is_visible="true" />
    <inkscape:path-effect
       effect="skeletal"
       id="path-effect6414"
       is_visible="true"
       lpeversion="1"
       pattern="m 26507.414,27761.564 c 0,-13.157 10.678,-23.835 23.835,-23.835 13.157,0 23.835,10.678 23.835,23.835 0,13.157 -10.678,23.835 -23.835,23.835 -13.157,0 -23.835,-10.678 -23.835,-23.835 z"
       copytype="single_stretched"
       prop_scale="0.08"
       scale_y_rel="false"
       spacing="0"
       normal_offset="0"
       tang_offset="0"
       prop_units="false"
       vertical_pattern="false"
       hide_knot="false"
       fuse_tolerance="0" />
    <inkscape:path-effect
       effect="spiro"
       id="path-effect2799-3"
       is_visible="true" />
    <inkscape:path-effect
       effect="spiro"
       id="path-effect2841-5"
       is_visible="true" />
  </defs>
  <sodipodi:namedview
     id="base"
     pagecolor="#ffffff"
     bordercolor="#666666"
     borderopacity="1.0"
     inkscape:pageopacity="0.0"
     inkscape:pageshadow="2"
     inkscape:zoom="1.3276958"
     inkscape:cx="253.49945"
     inkscape:cy="298.63741"
     inkscape:document-units="mm"
     inkscape:current-layer="layer1"
     showgrid="false"
     inkscape:window-width="1920"
     inkscape:window-height="1046"
     inkscape:window-x="-11"
     inkscape:window-y="-11"
     inkscape:window-maximized="1"
     fit-margin-top="0"
     fit-margin-left="0"
     fit-margin-right="0"
     fit-margin-bottom="0"
     inkscape:snap-global="false"
     inkscape:snap-midpoints="true"
     inkscape:snap-smooth-nodes="true" />
  <metadata
     id="metadata862">
    <rdf:RDF>
      <cc:Work
         rdf:about="">
        <dc:format>image/svg+xml</dc:format>
        <dc:type
           rdf:resource="http://purl.org/dc/dcmitype/StillImage" />
        <dc:title></dc:title>
      </cc:Work>
    </rdf:RDF>
  </metadata>
  <g
     inkscape:label="Ebene 1"
     inkscape:groupmode="layer"
     id="layer1"
     transform="translate(-141.06931,169.92242)">
    <path
       style="opacity:1;fill:#ffdd00;fill-opacity:1;fill-rule:evenodd;stroke:none;stroke-width:1.32291663;stroke-linecap:round;stroke-linejoin:miter;stroke-miterlimit:4;stroke-dasharray:none;stroke-opacity:1;paint-order:fill markers stroke"
       d="m 141.73077,-169.26096 v 85.912471 c 0,41.282258 29.61859,70.79365 66.41001,70.79365 36.79144,0 66.41053,-29.511392 66.41053,-70.79365 v -85.912471 z"
       id="rect953-2-5"
       inkscape:connector-curvature="0"
       sodipodi:nodetypes="cssscc" />
    <flowRoot
       xml:space="preserve"
       id="flowRoot2783"
       style="font-style:normal;font-weight:normal;font-size:26.66666603px;line-height:1.25;font-family:sans-serif;letter-spacing:0px;word-spacing:0px;fill:#000000;fill-opacity:1;stroke:none"><flowRegion
         id="flowRegion2785"><rect
           id="rect2787"
           width="4.054738"
           height="56.766335"
           x="1812.4679"
           y="-35.758636" /></flowRegion><flowPara
         id="flowPara2789" /></flowRoot>    <path
       style="opacity:1;fill:#0066b3;fill-opacity:1;fill-rule:evenodd;stroke:#000000;stroke-width:5;stroke-linecap:round;stroke-linejoin:round;stroke-miterlimit:4;stroke-dasharray:none;stroke-dashoffset:0;stroke-opacity:1;paint-order:fill markers stroke"
       d="M 2.5 299.36523 L 2.5 327.20898 C 2.5 483.23642 114.44386 594.77539 253.49805 594.77539 C 392.55231 594.77539 504.49805 483.23642 504.49805 327.20898 L 504.49805 299.36523 L 2.5 299.36523 z "
       transform="matrix(0.26458333,0,0,0.26458333,141.06931,-169.92242)"
       id="rect2492" />
    <path
       style="opacity:1;fill:#ffffff;fill-opacity:1;fill-rule:evenodd;stroke:#000000;stroke-width:5;stroke-linecap:round;stroke-linejoin:round;stroke-miterlimit:4;stroke-dasharray:none;stroke-dashoffset:0;stroke-opacity:1;paint-order:fill markers stroke"
       d="M 210.57227 299.36523 L 210.57227 591.12695 C 215.61221 591.9929 220.70491 592.70353 225.84375 593.26562 C 226.0824 593.2916 226.31974 593.32235 226.55859 593.34766 C 227.83305 593.48338 229.11435 593.60016 230.39453 593.7168 C 231.1226 593.78272 231.85019 593.85044 232.58008 593.91016 C 233.69813 594.00226 234.81916 594.08272 235.94141 594.16016 C 236.85355 594.2226 237.76678 594.28125 238.68164 594.33398 C 239.65708 594.3907 240.63284 594.44662 241.61133 594.49219 C 242.85908 594.54974 244.11073 594.59338 245.36328 594.63281 C 246.0671 594.65521 246.76929 594.68262 247.47461 594.69922 C 249.47701 594.74581 251.48402 594.77539 253.49805 594.77539 C 255.51208 594.77539 257.51909 594.74581 259.52148 594.69922 C 260.22684 594.68263 260.92896 594.6552 261.63281 594.63281 C 262.88537 594.59338 264.13702 594.54974 265.38477 594.49219 C 266.36034 594.44676 267.33409 594.39049 268.30664 594.33398 C 269.228 594.2809 270.1478 594.22309 271.06641 594.16016 C 272.18091 594.08322 273.29393 594.00156 274.4043 593.91016 C 275.14396 593.84968 275.88134 593.7817 276.61914 593.71484 C 277.89394 593.59862 279.16838 593.4828 280.4375 593.34766 C 280.67828 593.32214 280.91763 593.29182 281.1582 593.26562 C 286.29538 592.70363 291.38742 591.99267 296.42578 591.12695 L 296.42578 299.36523 L 210.57227 299.36523 z "
       transform="matrix(0.26458333,0,0,0.26458333,141.06931,-169.92242)"
       id="rect2519" />
    <path
       style="opacity:1;fill:none;fill-opacity:1;fill-rule:evenodd;stroke:#000000;stroke-width:1.32291663;stroke-linecap:round;stroke-linejoin:miter;stroke-miterlimit:4;stroke-dasharray:none;stroke-opacity:1;paint-order:fill markers stroke"
       d="m 141.73077,-169.26096 v 85.912472 c 0,41.282258 29.61859,70.793648 66.41001,70.793648 36.79144,0 66.41053,-29.51139 66.41053,-70.793648 v -85.912472 z"
       id="rect953-2"
       inkscape:connector-curvature="0"
       sodipodi:nodetypes="cssscc" />
    <path
       style="opacity:1;fill:#ed1c24;fill-opacity:1;fill-rule:evenodd;stroke:#000000;stroke-width:1.32291663;stroke-linecap:round;stroke-linejoin:round;stroke-miterlimit:4;stroke-dasharray:none;stroke-dashoffset:0;stroke-opacity:1;paint-order:fill markers stroke"
       d="m 204.73159,-140.91592 c 1.00456,6.36505 0.45414,12.96951 -1.59008,19.08049 -2.20984,6.60607 -6.16572,12.61976 -11.35745,17.26406 6.13894,-3.0157 11.45132,-7.69404 15.21923,-13.40228 4.44401,-6.73252 6.70354,-14.8826 6.36033,-22.94227 z"
       id="rect2637-3" />
    <path
       transform="translate(152.02485,-1.36e-6)"
       style="fill:#ed1c24;stroke:#000000;stroke-width:1.32291663;stroke-linecap:round;stroke-linejoin:round;stroke-miterlimit:4;stroke-dasharray:none;stroke-opacity:1;fill-opacity:1"
       d="m 107.50917,-160.42191 c -4.25071,2.37285 -8.158131,5.35955 -11.56329,8.83861 -8.207608,8.38573 -13.284468,19.38441 -16.613931,30.63608 -1.075123,3.6333 -1.984607,7.3156 -2.724682,11.03165 l 4.984179,0.46519 c 0.630023,-3.00847 1.33921,-6.00035 2.12658,-8.97152 2.503787,-9.44813 5.838507,-18.76694 11.031651,-27.04748 3.49369,-5.57074 7.807613,-10.62612 12.759493,-14.95253 z"
       id="path2797-0"
       inkscape:connector-curvature="0"
       inkscape:path-effect="#path-effect2799-3"
       inkscape:original-d="m 107.50917,-160.42191 c 0,0 -8.410009,5.15166 -11.56329,8.83861 -7.550634,8.82851 -12.418171,19.80325 -16.613931,30.63608 -1.368025,3.53204 -2.724682,11.03165 -2.724682,11.03165 l 4.984179,0.46519 c 0,0 1.189011,-6.04465 2.12658,-8.97152 2.970356,-9.27276 5.968509,-18.73053 11.031651,-27.04748 3.40712,-5.59669 12.759493,-14.95253 12.759493,-14.95253 z"
       sodipodi:nodetypes="caaccaac" />
    <rect
       style="opacity:1;fill:#ed1c24;fill-opacity:1;fill-rule:evenodd;stroke:#000000;stroke-width:1.32291663;stroke-linecap:round;stroke-linejoin:round;stroke-miterlimit:4;stroke-dasharray:none;stroke-dashoffset:0;stroke-opacity:1;paint-order:fill markers stroke"
       id="rect2568-1"
       width="6.5874228"
       height="102.90009"
       x="149.13091"
       y="137.5403"
       rx="0.37290105"
       ry="0.37290105"
       transform="rotate(-83.938806)"
       inkscape:transform-center-x="-50.066339"
       inkscape:transform-center-y="8.5510433" />
    <path
       style="opacity:1;fill:#ed1c24;fill-opacity:1;fill-rule:evenodd;stroke:#000000;stroke-width:1.32291663;stroke-linecap:round;stroke-linejoin:round;stroke-miterlimit:4;stroke-dasharray:none;stroke-dashoffset:0;stroke-opacity:1;paint-order:fill markers stroke"
       d="m 174.52052,-150.91066 v 30.21107 h 7.72304 v -30.21107 z"
       id="path2680" />
    <g
       id="g2795"
       transform="translate(-0.52322)">
      <path
         id="rect2721-6"
         d="m 177.33843,-136.16221 c -0.20659,0 -0.37259,0.166 -0.37259,0.37259 v 12.05094 H 164.9149 c -0.20659,0 -0.37259,0.16601 -0.37259,0.37259 v 3.13366 c 0,0.20659 0.166,0.37259 0.37259,0.37259 h 12.05094 v 12.05094 c 0,0.20659 0.166,0.37259 0.37259,0.37259 h 3.13366 c 0.20659,0 0.37259,-0.166 0.37259,-0.37259 v -12.05094 h 12.05094 c 0.20659,0 0.37259,-0.166 0.37259,-0.37259 v -3.13366 c 0,-0.20658 -0.166,-0.37259 -0.37259,-0.37259 h -12.05094 v -12.05094 c 0,-0.20659 -0.166,-0.37259 -0.37259,-0.37259 z"
         style="opacity:1;fill:#ed1c24;fill-opacity:1;fill-rule:evenodd;stroke:#000000;stroke-width:1.32291675;stroke-linecap:round;stroke-linejoin:round;stroke-miterlimit:4;stroke-dasharray:none;stroke-dashoffset:0;stroke-opacity:1;paint-order:fill markers stroke"
         inkscape:connector-curvature="0" />
      <path
         id="path2682-1"
         d="m 178.90526,-139.65605 a 17.856707,17.856707 0 0 0 -17.85679,17.85679 17.856707,17.856707 0 0 0 17.85679,17.85679 17.856707,17.856707 0 0 0 17.85679,-17.85679 17.856707,17.856707 0 0 0 -17.85679,-17.85679 z m 0,5.3206 a 12.536096,12.536096 0 0 1 12.53619,12.53619 12.536096,12.536096 0 0 1 -12.53619,12.53619 12.536096,12.536096 0 0 1 -12.53619,-12.53619 12.536096,12.536096 0 0 1 12.53619,-12.53619 z"
         style="opacity:1;fill:#ed1c24;fill-opacity:1;fill-rule:evenodd;stroke:#000000;stroke-width:1.32291663;stroke-linecap:round;stroke-linejoin:round;stroke-miterlimit:4;stroke-dasharray:none;stroke-dashoffset:0;stroke-opacity:1;paint-order:fill markers stroke"
         inkscape:connector-curvature="0" />
      <circle
         r="3.4936786"
         cy="-121.79926"
         cx="178.90526"
         id="path2682-2-0"
         style="opacity:1;fill:#ed1c24;fill-opacity:1;fill-rule:evenodd;stroke:#000000;stroke-width:1.32291675;stroke-linecap:round;stroke-linejoin:round;stroke-miterlimit:4;stroke-dasharray:none;stroke-dashoffset:0;stroke-opacity:1;paint-order:fill markers stroke" />
      <circle
         r="0.16502059"
         cy="-121.79926"
         cx="178.90526"
         id="path2682-2-5-2"
         style="opacity:1;fill:#ed1c24;fill-opacity:1;fill-rule:evenodd;stroke:#000000;stroke-width:1.32291675;stroke-linecap:round;stroke-linejoin:round;stroke-miterlimit:4;stroke-dasharray:none;stroke-dashoffset:0;stroke-opacity:1;paint-order:fill markers stroke" />
    </g>
    <path
       transform="translate(152.02485,-1.36e-6)"
       style="fill:#ed1c24;stroke:#000000;stroke-width:1.32291663;stroke-linecap:round;stroke-linejoin:round;stroke-miterlimit:4;stroke-dasharray:none;stroke-opacity:1;fill-opacity:1"
       d="m 46.393312,-103.60839 h 42.516887 c -0.129499,-2.73921 0.02342,-5.49168 0.455538,-8.19969 1.101831,-6.90491 4.026608,-13.46646 8.123762,-19.1326 3.438061,-4.75465 7.674091,-8.88257 12.147681,-12.67914 1.66061,-1.4093 3.35695,-2.7765 5.08684,-4.09984 -3.01541,0.48669 -5.95088,1.46518 -8.65522,2.88507 -7.523869,3.95033 -12.912765,11.10988 -16.62714,18.75299 -1.984134,4.08277 -3.563432,8.36216 -4.707226,12.75506 l -8.807071,-0.22777 -7.820071,-6.90899 z"
       id="path2839-9"
       inkscape:connector-curvature="0"
       inkscape:path-effect="#path-effect2841-5"
       inkscape:original-d="m 46.393312,-103.60839 h 42.516887 c 0,0 -0.164583,-5.53341 0.455538,-8.19969 1.56956,-6.7485 4.310705,-13.34759 8.123762,-19.1326 3.221151,-4.88699 7.835591,-8.72132 12.147681,-12.67914 1.60442,-1.47261 5.08684,-4.09984 5.08684,-4.09984 0,0 -6.11741,1.20936 -8.65522,2.88507 -6.97155,4.60331 -12.335784,11.5852 -16.62714,18.75299 -2.327967,3.88837 -4.707226,12.75506 -4.707226,12.75506 l -8.807071,-0.22777 -7.820071,-6.90899 z"
       sodipodi:nodetypes="ccaaacaacccc" />
  </g>
</svg>

<svg xmlns="http://www.w3.org/2000/svg" width="506.999" height="597.275" viewBox="0 0 134.143 158.029"><g transform="translate(-141.07 169.922)"><path style="opacity:1;fill:#fd0;fill-opacity:1;fill-rule:evenodd;stroke:none;stroke-width:1.32291663;stroke-linecap:round;stroke-linejoin:miter;stroke-miterlimit:4;stroke-dasharray:none;stroke-opacity:1;paint-order:fill markers stroke" d="M141.73-169.261v85.913c0 41.282 29.62 70.793 66.41 70.793 36.792 0 66.411-29.511 66.411-70.793v-85.913z"/><path style="opacity:1;fill:#0066b3;fill-opacity:1;fill-rule:evenodd;stroke:#000;stroke-width:5;stroke-linecap:round;stroke-linejoin:round;stroke-miterlimit:4;stroke-dasharray:none;stroke-dashoffset:0;stroke-opacity:1;paint-order:fill markers stroke" d="M2.5 299.365v27.844c0 156.027 111.944 267.566 250.998 267.566 139.054 0 251-111.539 251-267.566v-27.844H2.5z" transform="matrix(.26458 0 0 .26458 141.07 -169.922)"/><path style="opacity:1;fill:#fff;fill-opacity:1;fill-rule:evenodd;stroke:#000;stroke-width:5;stroke-linecap:round;stroke-linejoin:round;stroke-miterlimit:4;stroke-dasharray:none;stroke-dashoffset:0;stroke-opacity:1;paint-order:fill markers stroke" d="M210.572 299.365v291.762c5.04.866 10.133 1.577 15.272 2.139.238.026.476.056.715.082 1.274.135 2.555.252 3.836.369.728.066 1.455.133 2.185.193 1.118.092 2.24.173 3.361.25.913.063 1.826.121 2.74.174.976.057 1.952.113 2.93.158 1.248.058 2.5.101 3.752.14.704.023 1.406.05 2.112.067 2.002.047 4.009.076 6.023.076 2.014 0 4.021-.03 6.023-.076.706-.016 1.408-.044 2.112-.066 1.252-.04 2.504-.083 3.752-.14.975-.046 1.95-.103 2.922-.159a254.8 254.8 0 0 0 6.097-.424c.74-.06 1.477-.128 2.215-.195 1.275-.116 2.55-.232 3.818-.367.241-.026.48-.056.721-.082a251.961 251.961 0 0 0 15.268-2.139V299.365h-85.854z" transform="matrix(.26458 0 0 .26458 141.07 -169.922)"/><path style="opacity:1;fill:none;fill-opacity:1;fill-rule:evenodd;stroke:#000;stroke-width:1.32291663;stroke-linecap:round;stroke-linejoin:miter;stroke-miterlimit:4;stroke-dasharray:none;stroke-opacity:1;paint-order:fill markers stroke" d="M141.73-169.261v85.913c0 41.282 29.62 70.793 66.41 70.793 36.792 0 66.411-29.511 66.411-70.793v-85.913z"/><path style="opacity:1;fill:#ed1c24;fill-opacity:1;fill-rule:evenodd;stroke:#000;stroke-width:1.32291663;stroke-linecap:round;stroke-linejoin:round;stroke-miterlimit:4;stroke-dasharray:none;stroke-dashoffset:0;stroke-opacity:1;paint-order:fill markers stroke" d="M204.732-140.916a40.516 40.516 0 0 1-1.59 19.08 40.55 40.55 0 0 1-11.358 17.265 38.882 38.882 0 0 0 15.22-13.403c4.443-6.732 6.703-14.882 6.36-22.942z"/><path transform="translate(152.025)" style="fill:#ed1c24;stroke:#000;stroke-width:1.32291663;stroke-linecap:round;stroke-linejoin:round;stroke-miterlimit:4;stroke-dasharray:none;stroke-opacity:1;fill-opacity:1" d="M107.51-160.422a50.974 50.974 0 0 0-11.564 8.839c-8.208 8.385-13.285 19.384-16.614 30.636a124.778 124.778 0 0 0-2.725 11.031l4.984.466c.63-3.009 1.34-6 2.127-8.972 2.504-9.448 5.839-18.767 11.032-27.047a67.547 67.547 0 0 1 12.76-14.953z"/><rect style="opacity:1;fill:#ed1c24;fill-opacity:1;fill-rule:evenodd;stroke:#000;stroke-width:1.32291663;stroke-linecap:round;stroke-linejoin:round;stroke-miterlimit:4;stroke-dasharray:none;stroke-dashoffset:0;stroke-opacity:1;paint-order:fill markers stroke" width="6.587" height="102.9" x="149.131" y="137.54" rx=".373" ry=".373" transform="rotate(-83.939)"/><path style="opacity:1;fill:#ed1c24;fill-opacity:1;fill-rule:evenodd;stroke:#000;stroke-width:1.32291663;stroke-linecap:round;stroke-linejoin:round;stroke-miterlimit:4;stroke-dasharray:none;stroke-dashoffset:0;stroke-opacity:1;paint-order:fill markers stroke" d="M174.52-150.91v30.21h7.724v-30.21z"/><g transform="translate(-.523)"><path d="M177.338-136.162a.372.372 0 0 0-.372.372v12.051h-12.051a.372.372 0 0 0-.373.373v3.134c0 .206.166.372.373.372h12.05v12.051c0 .207.167.373.373.373h3.134a.372.372 0 0 0 .373-.373v-12.05h12.05a.372.372 0 0 0 .373-.373v-3.134a.372.372 0 0 0-.372-.373h-12.051v-12.05a.372.372 0 0 0-.373-.373z" style="opacity:1;fill:#ed1c24;fill-opacity:1;fill-rule:evenodd;stroke:#000;stroke-width:1.32291675;stroke-linecap:round;stroke-linejoin:round;stroke-miterlimit:4;stroke-dasharray:none;stroke-dashoffset:0;stroke-opacity:1;paint-order:fill markers stroke"/><path d="M178.905-139.656a17.857 17.857 0 0 0-17.857 17.857 17.857 17.857 0 0 0 17.857 17.857 17.857 17.857 0 0 0 17.857-17.857 17.857 17.857 0 0 0-17.857-17.857zm0 5.32a12.536 12.536 0 0 1 12.536 12.537 12.536 12.536 0 0 1-12.536 12.536A12.536 12.536 0 0 1 166.37-121.8a12.536 12.536 0 0 1 12.536-12.536z" style="opacity:1;fill:#ed1c24;fill-opacity:1;fill-rule:evenodd;stroke:#000;stroke-width:1.32291663;stroke-linecap:round;stroke-linejoin:round;stroke-miterlimit:4;stroke-dasharray:none;stroke-dashoffset:0;stroke-opacity:1;paint-order:fill markers stroke"/><circle r="3.494" cy="-121.799" cx="178.905" style="opacity:1;fill:#ed1c24;fill-opacity:1;fill-rule:evenodd;stroke:#000;stroke-width:1.32291675;stroke-linecap:round;stroke-linejoin:round;stroke-miterlimit:4;stroke-dasharray:none;stroke-dashoffset:0;stroke-opacity:1;paint-order:fill markers stroke"/><circle r=".165" cy="-121.799" cx="178.905" style="opacity:1;fill:#ed1c24;fill-opacity:1;fill-rule:evenodd;stroke:#000;stroke-width:1.32291675;stroke-linecap:round;stroke-linejoin:round;stroke-miterlimit:4;stroke-dasharray:none;stroke-dashoffset:0;stroke-opacity:1;paint-order:fill markers stroke"/></g><path transform="translate(152.025)" style="fill:#ed1c24;stroke:#000;stroke-width:1.32291663;stroke-linecap:round;stroke-linejoin:round;stroke-miterlimit:4;stroke-dasharray:none;stroke-opacity:1;fill-opacity:1" d="M46.393-103.608H88.91c-.13-2.74.024-5.492.456-8.2 1.102-6.905 4.026-13.467 8.123-19.133 3.439-4.754 7.675-8.882 12.148-12.679 1.66-1.41 3.357-2.776 5.087-4.1a28.39 28.39 0 0 0-8.655 2.885c-7.524 3.95-12.913 11.11-16.627 18.753a68.956 68.956 0 0 0-4.708 12.755l-8.807-.227-7.82-6.91z"/></g></svg>
